images/checkout/mir-c.svg

<svg width="50" height="16" viewBox="0 0 50 16" fill="none" xmlns="http://www.w3.org/2000/svg">
<path d="M4.33249 14.7971H0.0637207V0.950195H4.33249C6.24284 0.950195 6.66363 2.39524 6.88086 3.11637L8.6422 9.09641C8.67477 9.21299 8.71145 9.28976 8.81469 9.29531C8.91793 9.28976 8.95461 9.21299 8.98718 9.09641L10.7485 3.11637C10.9658 2.39524 11.3865 0.950195 13.2969 0.950195H17.5657V14.7971H13.2969V6.64782C13.2212 6.43401 12.9192 6.4731 12.87 6.64845L10.3088 14.7971H7.32062L4.75936 6.64845C4.71011 6.4731 4.40814 6.43401 4.33249 6.64782V14.7971ZM23.7885 0.950195H19.5197V14.7971H23.7885C24.522 14.7971 24.9541 14.4472 25.6728 12.8927L28.5244 6.57787C28.5735 6.4026 28.8827 6.36342 28.9584 6.57723V14.7971H33.2271V0.950195H28.9584C27.998 1.00087 27.5286 2.10482 27.182 2.85466L24.2154 9.09887C24.1661 9.27413 23.8642 9.31331 23.7885 9.0995V0.950195ZM35.3056 7.26712H48.7188C48.2674 8.61002 46.7141 10.36 44.3115 10.36H39.5744V14.7971H35.3056V7.26712Z" fill="#3BA336"/>
<path d="M48.9111 6.57723H41.8389C38.4185 6.57723 35.2907 4.68062 34.748 0.950195H44.3114C47.2257 0.950195 49.4731 3.62489 48.9111 6.57723Z" fill="#019AD7"/>
</svg>

<svg width="50" height="16" fill="none" xmlns="http://www.w3.org/2000/svg"><path d="M4.332 14.797H.064V.95h4.268c1.91 0 2.332 1.445 2.549 2.166l1.761 5.98c.033.117.07.194.173.2.103-.006.14-.083.172-.2l1.761-5.98c.218-.72.639-2.166 2.549-2.166h4.269v13.847h-4.27v-8.15c-.075-.213-.377-.174-.426.001l-2.561 8.15H7.32l-2.562-8.15c-.049-.175-.35-.214-.427 0v8.15zM23.788.95H19.52v13.847h4.268c.734 0 1.166-.35 1.885-1.904l2.851-6.315c.05-.175.359-.215.434 0v8.22h4.27V.95h-4.27c-.96.05-1.43 1.155-1.776 1.905l-2.967 6.244c-.049.175-.35.214-.427 0V.95zm11.518 6.317h13.413c-.452 1.343-2.005 3.093-4.407 3.093h-4.738v4.437h-4.268v-7.53z" fill="#3BA336"/><path d="M48.911 6.577H41.84c-3.42 0-6.548-1.896-7.091-5.627h9.563c2.915 0 5.162 2.675 4.6 5.627z" fill="#019AD7"/></svg>
